Numix-Light/16/status/skype-status-invisible.svg

<?xml version="1.0" encoding="UTF-8" standalone="no"?>
<!-- Created with Inkscape (http://www.inkscape.org/) -->

<svg
   xmlns:dc="http://purl.org/dc/elements/1.1/"
   xmlns:cc="http://creativecommons.org/ns#"
   xmlns:rdf="http://www.w3.org/1999/02/22-rdf-syntax-ns#"
   xmlns:svg="http://www.w3.org/2000/svg"
   xmlns="http://www.w3.org/2000/svg"
   xmlns:sodipodi="http://sodipodi.sourceforge.net/DTD/sodipodi-0.dtd"
   xmlns:inkscape="http://www.inkscape.org/namespaces/inkscape"
   version="1.1"
   width="16"
   height="16"
   id="svg2"
   xml:space="preserve"
   inkscape:version="0.91 r"
   sodipodi:docname="skype-status-invisible.svg"><metadata
     id="metadata37"><rdf:RDF><cc:Work
         rdf:about=""><dc:format>image/svg+xml</dc:format><dc:type
           rdf:resource="http://purl.org/dc/dcmitype/StillImage" /><dc:title></dc:title></cc:Work></rdf:RDF></metadata><sodipodi:namedview
     pagecolor="#ffffff"
     bordercolor="#666666"
     borderopacity="1"
     objecttolerance="10"
     gridtolerance="10"
     guidetolerance="10"
     inkscape:pageopacity="0"
     inkscape:pageshadow="2"
     inkscape:window-width="1920"
     inkscape:window-height="1056"
     id="namedview35"
     showgrid="true"
     inkscape:zoom="30.501345"
     inkscape:cx="-0.57001469"
     inkscape:cy="8.1123701"
     inkscape:window-x="0"
     inkscape:window-y="24"
     inkscape:window-maximized="1"
     inkscape:current-layer="svg2"><inkscape:grid
       type="xygrid"
       id="grid4146" /></sodipodi:namedview><defs
     id="defs6" /><path
     style="fill:#353535;fill-opacity:1;fill-rule:nonzero;stroke:none"
     d="M 4.8725585,0.890625 C 2.7339256,0.890625 1,2.6268465 1,4.7683105 1,5.4841777 1.1937285,6.1546595 1.5314942,6.7302246 1.442931,7.1646261 1.3964844,7.6145538 1.3964844,8.0751957 c 0,3.6930043 2.9908851,6.6855473 6.6787116,6.6855463 0.417691,0 0.825558,-0.03762 1.221923,-0.111084 0.545142,0.293417 1.168089,0.459717 1.830323,0.459717 2.138669,0 3.872558,-1.736007 3.872558,-3.877686 0,-0.618743 -0.145875,-1.203693 -0.403321,-1.7226561 0.100964,-0.4623264 0.155518,-0.9412218 0.155518,-1.4338371 0,-3.6929006 -2.989178,-6.6872563 -6.677001,-6.6872563 -0.389342,0 -0.7722131,0.033345 -1.1433112,0.097412 C 6.3350961,1.1089155 5.6299509,0.890625 4.8725585,0.890625 Z M 6.1440429,4.9067383 8,6.7626953 9.855957,4.9067383 11.093262,6.1440429 9.237304,8 11.093262,9.8559573 9.855957,11.093262 8,9.2373042 6.1440429,11.093262 4.9067383,9.8559573 6.7626953,8 4.9067383,6.1440429 6.1440429,4.9067383 Z"
     id="path22"
     inkscape:connector-curvature="0" /><g
     id="g48"
     transform="matrix(1.25,0,0,-1.25,-129.20625,292.11625)" /></svg>

<!-- Created with Inkscape (http://www.inkscape.org/) -->
<svg xmlns="http://www.w3.org/2000/svg" viewBox="0 0 16 16">
 <path d="m 4.873 0.891 c -2.139 0 -3.873 1.736 -3.873 3.878 0 0.716 0.194 1.386 0.531 1.962 -0.089 0.434 -0.135 0.884 -0.135 1.345 c 0 3.693 2.991 6.686 6.679 6.686 0.418 0 0.826 -0.038 1.222 -0.111 0.545 0.293 1.168 0.46 1.83 0.46 2.139 0 3.873 -1.736 3.873 -3.878 0 -0.619 -0.146 -1.204 -0.403 -1.723 0.101 -0.462 0.156 -0.941 0.156 -1.434 0 -3.693 -2.989 -6.687 -6.677 -6.687 -0.389 0 -0.772 0.033 -1.143 0.097 c -0.597 -0.376 -1.302 -0.595 -2.059 -0.595 m 1.271 4.02 1.856 1.856 1.856 -1.856 1.237 1.237 -1.856 1.856 1.856 1.856 -1.237 1.237 -1.856 -1.856 -1.856 1.856 -1.237 -1.237 1.856 -1.856 -1.856 -1.856 1.237 -1.237" style="fill:#353535;fill-opacity:1;stroke:none;fill-rule:nonzero"/>
</svg>
